modules/feathericon/icons/notice-on.svg

<?xml version="1.0" encoding="UTF-8"?>
<svg width="24px" height="24px" viewBox="0 0 24 24" version="1.1" xmlns="http://www.w3.org/2000/svg" xmlns:xlink="http://www.w3.org/1999/xlink">
    <!-- Generator: sketchtool 52.2 (67145) - http://www.bohemiancoding.com/sketch -->
    <title>notice-on</title>
    <desc>Created with sketchtool.</desc>
    <g id="web-app" stroke="none" stroke-width="1" fill="none" fill-rule="evenodd">
        <g id="notice-on" fill="#000000">
            <path d="M15,18 L15,19 C15,20.6568542 13.6568542,22 12,22 C10.3431458,22 9,20.6568542 9,19 L9,18 C6.33333333,18 5,18 5,18 C4.44999981,18 4,17.5499992 4,17 C4,16.4500008 4.44999981,16 5,16 C5,16 5.33333333,16 6,16 L6,10 C6,7.02700371 8.16228666,4.55903653 11,4.08295844 L11,3 C11,2.44771525 11.4477153,2 12,2 C12.5522847,2 13,2.44771525 13,3 L13,4.08295844 C15.8377133,4.55903653 18,7.02700371 18,10 L18,16 C18.6666667,16 19,16 19,16 C19.5499992,16 20,16.4500008 20,17 C20,17.5499992 19.5499992,18 19,18 C19,18 17.6666667,18 15,18 Z M12,20 C12.5522847,20 13,19.5522847 13,19 C13,18.7251922 13,18.3918589 13,18 L11,18 C11,18.470365 11,18.8036984 11,19 C11,19.5522847 11.4477153,20 12,20 Z M13,14 L13,12 L15,12 C15.5522847,12 16,11.5522847 16,11 C16,10.4477153 15.5522847,10 15,10 L13,10 L13,8 C13,7.44771525 12.5522847,7 12,7 C11.4477153,7 11,7.44771525 11,8 L11,10 L9,10 C8.44771525,10 8,10.4477153 8,11 C8,11.5522847 8.44771525,12 9,12 L11,12 L11,14 C11,14.5522847 11.4477153,15 12,15 C12.5522847,15 13,14.5522847 13,14 Z" id="Shape"></path>
        </g>
    </g>
</svg>

<svg width="24" height="24" viewBox="0 0 24 24" xmlns="http://www.w3.org/2000/svg"><path d="M15 18v1a3 3 0 0 1-6 0v-1H5c-.55 0-1-.45-1-1s.45-1 1-1h1v-6a6.002 6.002 0 0 1 5-5.917V3a1 1 0 0 1 2 0v1.083c2.838.476 5 2.944 5 5.917v6h1c.55 0 1 .45 1 1s-.45 1-1 1h-4zm-3 2a1 1 0 0 0 1-1v-1h-2v1a1 1 0 0 0 1 1zm1-6v-2h2a1 1 0 0 0 0-2h-2V8a1 1 0 0 0-2 0v2H9a1 1 0 0 0 0 2h2v2a1 1 0 0 0 2 0z" fill="#000" fill-rule="evenodd"/></svg>
